svgs/contacts.svg

<svg width="24" height="24" viewBox="0 0 24 24" fill="none" xmlns="http://www.w3.org/2000/svg">
<path d="M12 11C10.9 11 9.95833 10.6083 9.175 9.825C8.39166 9.04167 8 8.1 8 7C8 5.9 8.39166 4.95833 9.175 4.175C9.95833 3.39167 10.9 3 12 3C13.1 3 14.0417 3.39167 14.825 4.175C15.6083 4.95833 16 5.9 16 7C16 8.1 15.6083 9.04167 14.825 9.825C14.0417 10.6083 13.1 11 12 11ZM5 21C4.44772 21 4 20.5523 4 20V17.2C4 16.6333 4.146 16.1123 4.438 15.637C4.72933 15.1623 5.11667 14.8 5.6 14.55C6.63333 14.0333 7.68333 13.6457 8.75 13.387C9.81667 13.129 10.9 13 12 13C13.1 13 14.1833 13.129 15.25 13.387C16.3167 13.6457 17.3667 14.0333 18.4 14.55C18.8833 14.8 19.2707 15.1623 19.562 15.637C19.854 16.1123 20 16.6333 20 17.2V20C20 20.5523 19.5523 21 19 21H5Z" fill="#FFF1C0"/>
</svg>

<svg xmlns="http://www.w3.org/2000/svg" viewBox="0 0 24 24"><path d="M12 11c-1.1 0-2.042-.392-2.825-1.175C8.392 9.042 8 8.1 8 7s.392-2.042 1.175-2.825C9.958 3.392 10.9 3 12 3s2.042.392 2.825 1.175C15.608 4.958 16 5.9 16 7s-.392 2.042-1.175 2.825C14.042 10.608 13.1 11 12 11M5 21a1 1 0 0 1-1-1v-2.8c0-.567.146-1.088.438-1.563A2.914 2.914 0 0 1 5.6 14.55a14.866 14.866 0 0 1 3.15-1.163A13.776 13.776 0 0 1 12 13c1.1 0 2.183.129 3.25.387 1.067.259 2.117.646 3.15 1.163.483.25.87.612 1.162 1.087.292.475.438.996.438 1.563V20a1 1 0 0 1-1 1z"/></svg>
